Pods/ProtonCore-UIFoundations/libraries/UIFoundations/Sources/Assets.xcassets/Images/IconSet/ic-mobile.imageset/ic-mobile.svg

<svg width="24" height="24" viewBox="0 0 24 24" fill="none" xmlns="http://www.w3.org/2000/svg">
<path fill-rule="evenodd" clip-rule="evenodd" d="M7.5 3H16.5C17.3284 3 18 3.67157 18 4.5V19.5C18 20.3284 17.3284 21 16.5 21H7.5C6.67157 21 6 20.3284 6 19.5V4.5C6 3.67157 6.67157 3 7.5 3ZM4.5 4.5C4.5 2.84315 5.84315 1.5 7.5 1.5H16.5C18.1569 1.5 19.5 2.84315 19.5 4.5V19.5C19.5 21.1569 18.1569 22.5 16.5 22.5H7.5C5.84315 22.5 4.5 21.1569 4.5 19.5V4.5ZM13.5 19.5C13.9142 19.5 14.25 19.1642 14.25 18.75C14.25 18.3358 13.9142 18 13.5 18H10.5C10.0858 18 9.75 18.3358 9.75 18.75C9.75 19.1642 10.0858 19.5 10.5 19.5H13.5Z" fill="#0C0C14"/>
</svg>

<svg xmlns="http://www.w3.org/2000/svg" width="24" height="24" viewBox="0 0 24 24">
  <g class="ic-mobile">
    <path fill-rule="evenodd" d="M7.5 3h9A1.5 1.5 0 0 1 18 4.5v15a1.5 1.5 0 0 1-1.5 1.5h-9A1.5 1.5 0 0 1 6 19.5v-15A1.5 1.5 0 0 1 7.5 3Zm-3 1.5a3 3 0 0 1 3-3h9a3 3 0 0 1 3 3v15a3 3 0 0 1-3 3h-9a3 3 0 0 1-3-3v-15Zm9 15a.75.75 0 0 0 0-1.5h-3a.75.75 0 0 0 0 1.5h3Z" class="Icon"/>
  </g>
</svg>
